X:1
T:Title
%%score ( 1 2 3 ) { ( 4 7 ) | ( 5 6 ) }
L:1/8
Q:1/4=130
M:3/2
K:D
V:1 treble nm="Grand Piano, Staff 1"
V:2 treble 
V:3 treble 
V:4 bass nm="Choir Pad, Bracondale, CM"
V:7 bass 
V:5 bass 
V:6 bass 
V:1
 z4 z2 A6 | z12 | z4 z2 .A6 | z12 | z4 z2 B6 | z12 | [Ed]2 [=Fc]2 [FB]2 [^FA]4 [DF]2- | %7
 [DF]2 [CE]4 D6- | D4 z4 z4 |] %9
V:2
 [DF]2 [DG]2 [DF]2 .D6 | A2 [EB]2 [EA]2 [Dd]6 | [Dd]2 [Dc]2 [DB]2 D4- [DB]2- | [DB]2 [CG]4 [DF]6 | %4
 [DF]2 [EG]2 [EF]2 .^D6 | B2 [F=c]2 [FB]2 [Ee]6 | x12 | x12 | x12 |] %9
V:3
 z4 z4 z2 C2- | C2 z2 z4 z4 | x12 | x12 | z4 z4 z2 E2- | E2 z2 z4 z4 | x12 | x12 | x12 |] %9
V:4
 A,2 B,2 A,2 A,6 | z2 C2 C2 A,6 | A,2 A,2 G,2 F,4 E,2- | E,2 A,4 A,6 | z4 z4 z2[K:treble] C2- | %5
 C2 z2 z4 z4[K:bass] | B,2 B,2 C2 D4 A,2- | A,2 G,4 F,6- | F,4 z4 z4 |] %9
V:5
 D,2 D,2 D,2 .F,6 | A,2 G,2 G,2 F,6 | F,,2 G,,2 G,,2 A,,6- | A,,2 A,,4 D,6 | D,2 C,2 F,2 B,,6 | %5
 z2 A,2 A,2 G,6 | G,2 ^G,2 G,2 .A,6 | z2 A,,4 D,6- | D,4 z4 z4 |] %9
V:6
 z4 z4 z2 E,2- | E,2 z2 z4 z4 | x12 | x12 | x12 | x12 | x12 | x12 | x12 |] %9
V:7
 x12 | x12 | x12 | x12 | A,2 ^A,2 A,2 .B,6[K:treble] | B,2 ^D2 D2 =D4[K:bass] B,2 | x12 | x12 | %8
 x12 |] %9

